X:1
T:My Wild irish Rose
T:My Wild irish Rose
T:Chauncey Olcott
L:1/8
M:3/4
K:Bb
V:1 treble nm="P1"
V:1
"^= 100" F2 |"Bb" d6 |"Ebm" d4 c2 |"Bb" B6- |"Bb7" B4 B2 |"Eb" B2 B4 |"Edim7" A4 G2 |"Bb" F6- | %8
w: My|wild|I- rish|Rose|* The|Sweet- est|Flow- r|that|
 F4 DD |"F7" E2 F2 G2 |"Bb" F4 D2 |"F7" E2 F2 G2 |"Bb" F4 AB |"C7" G6 | d4 c2 |"F7" c6- | c4 F2 | %17
w: grows, You may|search ev'- ry|where, but|non can com-|pare with my|wild|I- rish|Rose.|* My|
"Bb" d6 |"Ebm" d4 c2 |"Bb" B6- |"Bb7" B4 B2 |"Eb" B2 B4 |"Edim7" A4 G2 |"Bb" F6- | F4 DD | %25
w: wild|I- rish|Rose|* the|dear- est|flow'r that|grows,|* And some|
"F7" E2 F2 G2 |"Bb" F4 D2 |"F7" E2 F2 G2 |"Bb" F4 F2 |"C7" G2 A2 B2 |"Cm7" B2 c3"F7" B |"Bb" B6- | %32
w: day for my|sake, she|may let me|take the|bloom from my|wild I- rish|rose.|
 B4 z2 |] %33
w: |

